!!!OTL: No_174_Mīde'_Burial_Song_(a).krn
!!!REG: Great_Lakes
!!!LANG: Non-Tone
!!!LING_GROUP: Algonquin
!!!SOCIAL_FUNCTION: mide songs
**kern
*staff1
=1-
*clefF4
*k[f#c#g#d#a#]
*M2/4
8d#\L
8d#\J
4d#\
=2||
*M3/4
2.d#\
=3||
*M2/4
[2B\
=4
2B\]
=5
8d#\L
8d#\J
4d#\
=6||
*M3/4
[2.c#\
=7||
*M2/4
4c#\]
(16c#\LK
8.B\J)
=8
8c#\L
8c#\J
4c#\
=9||
*M3/4
[2.B\
=10||
*M2/4
4B\]
(16B\LK
8.G#\J)
=11
8G#\L
8G#\J
4G#\
=12
[2G#\
=13
2G#\]
=14
8G#\L
8G#\J
4B\
=15
[2B\
=16
2B\]
=17
8c#\L
8c#\J
4c#\
=18
[2c#\
=19
4c#\]
4B\
=20
8c#\L
8c#\J
4c#\
=21
[2B\
=22
4B\]
(16B\LK
8.G#\J)
=23
8G#\L
8G#\J
4G#\
=24
[2G#\
=25
4G#\]
4G#\
=26
4d#\
4d#\
=27
[2B\
=28
2B\]
=29
8d#\L
8d#\J
4d#\
=30
[2c#\
=31
4c#\]
(16c#\LK
8.B\J)
=32
8c#\L
8c#\J
4c#\
=33
[2B\
=34
4B\]
(16B\LK
8.G#\J)
=35
8G#\L
8G#\J
4G#\
=36
[2G#\
=37
2G#\]
=38
8G#\L
8G#\J
4B\
=39
[2B\
=40
2B\]
=41
8c#\L
8c#\J
4c#\
=42
[2c#\
=43
4c#\]
4B\
=44
8c#\L
8c#\J
4c#\
=45
[2B\
=46
4B\]
(16B\LK
8.G#\J)
=47
8G#\L
8G#\J
4G#\
=48
[2G#\
=49
2G#\]
=50
8G#\L
8G#\J
4G#\
=51
[2G#\
=52
4G#\]
(16A#\LK
8.G#\J)
=53||
*M3/4
8G#\L
8G#\J
2G#\
=54||
*M2/4
(16G#\LK
(8.D#\J)
4D#\)
==
*-
